X:1
T:Chattanooga
M:2/4
L:1/8
S:Liz Slade
Z:AK/Fiddlers Companion
K:G
(G,/|D/)(D/E/)(D/ G)A|A/ B B/ BB/A/|B/A/e/A/ d/A/B/A/|D/ E E/ E z/(G,/|
D/)(D/E/)(D/ G)A|A/ B B/ BB/A/|B/A/e/A/ d/A/B/A/|(A/ B) (A/ B/)A/B:|
|:gg/e/ g/(A/d)|e/A/d/(A/ B)B/(A/|B/)B/e/A/ d/A/B/A/|E>D E/D/E|
gg/e/ g/(A/d)|e/A/d/(A/ B)B/(A/|B/)B/e/A/ d/A/B/A/|(A/ B) (A/ B/)A/B||
